X:5
T: Maulykeavane Rambler
S: "Johnny O'Leary of Sliabh Luachra" (#19)
Z: B.Black
L: 1/8
M: 12/8
R: slide
Q: 360
K: D
F2B AGA F2B AGA|Bcd e2d c2d BBA|
F2B AGA F2B AGA|Bcd efe B2c d3 :|
f3 f2e d2c B/c/BA|Bcd e2d c2e B2A|
fgf f2e d2c B/c/BA|Bcd efe B2c d3 :|

